templates/flag_icons/sb.svg

<?xml version="1.0" encoding="UTF-8" standalone="no"?>
<svg width="23px" height="17px" viewBox="0 0 23 17" version="1.1" xmlns="http://www.w3.org/2000/svg" xmlns:xlink="http://www.w3.org/1999/xlink">
    <!-- Generator: Sketch 3.7.2 (28276) - http://www.bohemiancoding.com/sketch -->
    <title>SB</title>
    <desc>Created with Sketch.</desc>
    <defs>
        <linearGradient x1="50%" y1="0%" x2="50%" y2="100%" id="linearGradient-1">
            <stop stop-color="#FFFFFF" offset="0%"></stop>
            <stop stop-color="#F0F0F0" offset="100%"></stop>
        </linearGradient>
        <rect id="path-2" x="0" y="0" width="21" height="15" rx="1.5"></rect>
        <filter x="-50%" y="-50%" width="200%" height="200%" filterUnits="objectBoundingBox" id="filter-4">
            <feOffset dx="0" dy="0.5" in="SourceAlpha" result="shadowOffsetOuter1"></feOffset>
            <feGaussianBlur stdDeviation="0.5" in="shadowOffsetOuter1" result="shadowBlurOuter1"></feGaussianBlur>
            <feColorMatrix values="0 0 0 0 0   0 0 0 0 0   0 0 0 0 0  0 0 0 0.16 0" type="matrix" in="shadowBlurOuter1"></feColorMatrix>
        </filter>
        <linearGradient x1="50%" y1="0%" x2="50%" y2="100%" id="linearGradient-5">
            <stop stop-color="#1CBE4F" offset="0%"></stop>
            <stop stop-color="#159B3F" offset="100%"></stop>
        </linearGradient>
        <linearGradient x1="50%" y1="0%" x2="50%" y2="100%" id="linearGradient-6">
            <stop stop-color="#0660D5" offset="0%"></stop>
            <stop stop-color="#0051BB" offset="100%"></stop>
        </linearGradient>
        <polygon id="path-7" points="0 0 21 0 0 15"></polygon>
        <filter x="-50%" y="-50%" width="200%" height="200%" filterUnits="objectBoundingBox" id="filter-8">
            <feMorphology radius="0.25" operator="dilate" in="SourceAlpha" result="shadowSpreadOuter1"></feMorphology>
            <feOffset dx="0" dy="0" in="shadowSpreadOuter1" result="shadowOffsetOuter1"></feOffset>
            <feColorMatrix values="0 0 0 0 0   0 0 0 0 0   0 0 0 0 0  0 0 0 0.06 0" type="matrix" in="shadowOffsetOuter1"></feColorMatrix>
        </filter>
        <linearGradient x1="50%" y1="0%" x2="50%" y2="100%" id="linearGradient-9">
            <stop stop-color="#2B7442" offset="0%"></stop>
            <stop stop-color="#225B34" offset="100%"></stop>
        </linearGradient>
        <polygon id="path-10" points="0 0 21 15 0 15"></polygon>
        <filter x="-50%" y="-50%" width="200%" height="200%" filterUnits="objectBoundingBox" id="filter-11">
            <feMorphology radius="0.25" operator="dilate" in="SourceAlpha" result="shadowSpreadOuter1"></feMorphology>
            <feOffset dx="0" dy="0" in="shadowSpreadOuter1" result="shadowOffsetOuter1"></feOffset>
            <feColorMatrix values="0 0 0 0 0   0 0 0 0 0   0 0 0 0 0  0 0 0 0.06 0" type="matrix" in="shadowOffsetOuter1"></feColorMatrix>
        </filter>
        <linearGradient x1="50%" y1="0%" x2="50%" y2="100%" id="linearGradient-12">
            <stop stop-color="#FFD646" offset="0%"></stop>
            <stop stop-color="#FED02F" offset="100%"></stop>
        </linearGradient>
        <rect id="path-13" x="-4" y="6.5" width="29" height="2"></rect>
        <filter x="-50%" y="-50%" width="200%" height="200%" filterUnits="objectBoundingBox" id="filter-14">
            <feMorphology radius="0.25" operator="dilate" in="SourceAlpha" result="shadowSpreadOuter1"></feMorphology>
            <feOffset dx="0" dy="0" in="shadowSpreadOuter1" result="shadowOffsetOuter1"></feOffset>
            <feColorMatrix values="0 0 0 0 0   0 0 0 0 0   0 0 0 0 0  0 0 0 0.06 0" type="matrix" in="shadowOffsetOuter1"></feColorMatrix>
        </filter>
        <rect id="path-15" x="0" y="0" width="21" height="15" rx="1.5"></rect>
        <path d="M2.25,2.875 L1.51526843,3.26127124 L1.65558968,2.44313562 L1.06117935,1.86372876 L1.88263422,1.74436438 L2.25,1 L2.61736578,1.74436438 L3.43882065,1.86372876 L2.84441032,2.44313562 L2.98473157,3.26127124 L2.25,2.875 Z M7.25,2.875 L6.51526843,3.26127124 L6.65558968,2.44313562 L6.06117935,1.86372876 L6.88263422,1.74436438 L7.25,1 L7.61736578,1.74436438 L8.43882065,1.86372876 L7.84441032,2.44313562 L7.98473157,3.26127124 L7.25,2.875 Z M7.25,5.875 L6.51526843,6.26127124 L6.65558968,5.44313562 L6.06117935,4.86372876 L6.88263422,4.74436438 L7.25,4 L7.61736578,4.74436438 L8.43882065,4.86372876 L7.84441032,5.44313562 L7.98473157,6.26127124 L7.25,5.875 Z M2.25,5.875 L1.51526843,6.26127124 L1.65558968,5.44313562 L1.06117935,4.86372876 L1.88263422,4.74436438 L2.25,4 L2.61736578,4.74436438 L3.43882065,4.86372876 L2.84441032,5.44313562 L2.98473157,6.26127124 L2.25,5.875 Z M4.75,4.375 L4.01526843,4.76127124 L4.15558968,3.94313562 L3.56117935,3.36372876 L4.38263422,3.24436438 L4.75,2.5 L5.11736578,3.24436438 L5.93882065,3.36372876 L5.34441032,3.94313562 L5.48473157,4.76127124 L4.75,4.375 Z" id="path-17"></path>
        <filter x="-50%" y="-50%" width="200%" height="200%" filterUnits="objectBoundingBox" id="filter-18">
            <feOffset dx="0" dy="0.5" in="SourceAlpha" result="shadowOffsetOuter1"></feOffset>
            <feColorMatrix values="0 0 0 0 0   0 0 0 0 0   0 0 0 0 0  0 0 0 0.24 0" type="matrix" in="shadowOffsetOuter1"></feColorMatrix>
        </filter>
    </defs>
    <g id="Flag-Kit" stroke="none" stroke-width="1" fill="none" fill-rule="evenodd">
        <g id="SB">
            <g id="Rectangle-1-Copy-3" transform="translate(1.000000, 1.000000)">
                <mask id="mask-3" fill="white">
                    <use xlink:href="#path-2"></use>
                </mask>
                <g id="Mask">
                    <use fill="black" fill-opacity="1" filter="url(#filter-4)" xlink:href="#path-2"></use>
                    <use fill="url(#linearGradient-1)" fill-rule="evenodd" xlink:href="#path-2"></use>
                </g>
                <rect id="Mask-Copy" fill="url(#linearGradient-5)" mask="url(#mask-3)" x="0" y="0" width="21" height="15"></rect>
                <g id="Rectangle-253" mask="url(#mask-3)">
                    <use fill="black" fill-opacity="1" filter="url(#filter-8)" xlink:href="#path-7"></use>
                    <use fill="url(#linearGradient-6)" fill-rule="evenodd" xlink:href="#path-7"></use>
                </g>
                <g id="Rectangle-253" mask="url(#mask-3)" transform="translate(10.500000, 7.500000) scale(-1, 1) translate(-10.500000, -7.500000) ">
                    <use fill="black" fill-opacity="1" filter="url(#filter-11)" xlink:href="#path-10"></use>
                    <use fill="url(#linearGradient-9)" fill-rule="evenodd" xlink:href="#path-10"></use>
                </g>
                <g id="Rectangle-2" mask="url(#mask-3)">
                    <use fill="black" fill-opacity="1" filter="url(#filter-14)" xlink:href="#path-13"></use>
                    <use fill="url(#linearGradient-12)" fill-rule="evenodd" xlink:href="#path-13"></use>
                </g>
                <mask id="mask-16" fill="white">
                    <use xlink:href="#path-15"></use>
                </mask>
                <g id="Depth"></g>
                <g id="Star-2" mask="url(#mask-16)">
                    <use fill="black" fill-opacity="1" filter="url(#filter-18)" xlink:href="#path-17"></use>
                    <use fill="#FFFFFF" fill-rule="evenodd" xlink:href="#path-17"></use>
                </g>
            </g>
        </g>
    </g>
</svg>

<svg width="23" height="17" viewBox="0 0 23 17" xmlns="http://www.w3.org/2000/svg" xmlns:xlink="http://www.w3.org/1999/xlink"><title>SB</title><defs><linearGradient x1="50%" y1="0%" x2="50%" y2="100%" id="c"><stop stop-color="#FFF" offset="0%"/><stop stop-color="#F0F0F0" offset="100%"/></linearGradient><rect id="a" width="21" height="15" rx="1.5"/><filter x="-50%" y="-50%" width="200%" height="200%" filterUnits="objectBoundingBox" id="b"><feOffset dy=".5" in="SourceAlpha" result="shadowOffsetOuter1"/><feGaussianBlur stdDeviation=".5" in="shadowOffsetOuter1" result="shadowBlurOuter1"/><feColorMatrix values="0 0 0 0 0 0 0 0 0 0 0 0 0 0 0 0 0 0 0.16 0" in="shadowBlurOuter1"/></filter><linearGradient x1="50%" y1="0%" x2="50%" y2="100%" id="d"><stop stop-color="#1CBE4F" offset="0%"/><stop stop-color="#159B3F" offset="100%"/></linearGradient><linearGradient x1="50%" y1="0%" x2="50%" y2="100%" id="h"><stop stop-color="#0660D5" offset="0%"/><stop stop-color="#0051BB" offset="100%"/></linearGradient><path id="g" d="M0 0h21L0 15z"/><filter x="-50%" y="-50%" width="200%" height="200%" filterUnits="objectBoundingBox" id="f"><feMorphology radius=".25" operator="dilate" in="SourceAlpha" result="shadowSpreadOuter1"/><feOffset in="shadowSpreadOuter1" result="shadowOffsetOuter1"/><feColorMatrix values="0 0 0 0 0 0 0 0 0 0 0 0 0 0 0 0 0 0 0.06 0" in="shadowOffsetOuter1"/></filter><linearGradient x1="50%" y1="0%" x2="50%" y2="100%" id="k"><stop stop-color="#2B7442" offset="0%"/><stop stop-color="#225B34" offset="100%"/></linearGradient><path id="j" d="M0 0l21 15H0z"/><filter x="-50%" y="-50%" width="200%" height="200%" filterUnits="objectBoundingBox" id="i"><feMorphology radius=".25" operator="dilate" in="SourceAlpha" result="shadowSpreadOuter1"/><feOffset in="shadowSpreadOuter1" result="shadowOffsetOuter1"/><feColorMatrix values="0 0 0 0 0 0 0 0 0 0 0 0 0 0 0 0 0 0 0.06 0" in="shadowOffsetOuter1"/></filter><linearGradient x1="50%" y1="0%" x2="50%" y2="100%" id="n"><stop stop-color="#FFD646" offset="0%"/><stop stop-color="#FED02F" offset="100%"/></linearGradient><path id="m" d="M-4 6.5h29v2H-4z"/><filter x="-50%" y="-50%" width="200%" height="200%" filterUnits="objectBoundingBox" id="l"><feMorphology radius=".25" operator="dilate" in="SourceAlpha" result="shadowSpreadOuter1"/><feOffset in="shadowSpreadOuter1" result="shadowOffsetOuter1"/><feColorMatrix values="0 0 0 0 0 0 0 0 0 0 0 0 0 0 0 0 0 0 0.06 0" in="shadowOffsetOuter1"/></filter><rect id="o" width="21" height="15" rx="1.5"/><path d="M2.25 2.88l-.73.38.14-.82-.6-.58.82-.12.37-.74.37.74.82.12-.6.58.14.82-.73-.38zm5 0l-.73.38.14-.82-.6-.58.82-.12.37-.74.37.74.82.12-.6.58.14.82-.73-.38zm0 3l-.73.38.14-.82-.6-.58.82-.12.37-.74.37.74.82.12-.6.58.14.82-.73-.38zm-5 0l-.73.38.14-.82-.6-.58.82-.12.37-.74.37.74.82.12-.6.58.14.82-.73-.38zm2.5-1.5l-.73.38.14-.82-.6-.58.82-.12.37-.74.37.74.82.12-.6.58.14.82-.73-.38z" id="r"/><filter x="-50%" y="-50%" width="200%" height="200%" filterUnits="objectBoundingBox" id="q"><feOffset dy=".5" in="SourceAlpha" result="shadowOffsetOuter1"/><feColorMatrix values="0 0 0 0 0 0 0 0 0 0 0 0 0 0 0 0 0 0 0.24 0" in="shadowOffsetOuter1"/></filter></defs><g transform="translate(1 1)" fill="none" fill-rule="evenodd"><mask id="e" fill="#fff"><use xlink:href="#a"/></mask><use fill="#000" filter="url(#b)" xlink:href="#a"/><use fill="url(#c)" xlink:href="#a"/><path fill="url(#d)" mask="url(#e)" d="M0 0h21v15H0z"/><g mask="url(#e)"><use fill="#000" filter="url(#f)" xlink:href="#g"/><use fill="url(#h)" xlink:href="#g"/></g><g mask="url(#e)" transform="matrix(-1 0 0 1 21 0)"><use fill="#000" filter="url(#i)" xlink:href="#j"/><use fill="url(#k)" xlink:href="#j"/></g><g mask="url(#e)"><use fill="#000" filter="url(#l)" xlink:href="#m"/><use fill="url(#n)" xlink:href="#m"/></g><mask id="p" fill="#fff"><use xlink:href="#o"/></mask><g mask="url(#p)"><use fill="#000" filter="url(#q)" xlink:href="#r"/><use fill="#FFF" xlink:href="#r"/></g></g></svg>
